presets/analog_fade.pp3
[Exposure]
Black=10

[Luminance Curve]
Enabled=true
Contrast=-4

[Vibrance]
Enabled=true
Saturated=-12
Pastels=-4

[ColorToning]
Enabled=true
Method=Splitco
Lumamode=true
Redlow=-2
Greenlow=0
Bluelow=4
Redmed=0
Greenmed=0
Bluemed=0
Redhigh=8
Greenhigh=4
Bluehigh=-6
Strength=16
Autosat=true
SatProtectionThreshold=30
SaturatedOpacity=80

[PCVignette]
Enabled=true
Strength=1
Feather=55
Roundness=50
