presets/cinematic_drama.pp3
[Exposure]
Black=10

[Luminance Curve]
Enabled=true
Contrast=20

[Vibrance]
Enabled=true
Saturated=-8
Pastels=-6

[ColorToning]
Enabled=true
Method=Splitco
Lumamode=true
Redlow=-10
Greenlow=4
Bluelow=12
Redmed=0
Greenmed=0
Bluemed=0
Redhigh=10
Greenhigh=2
Bluehigh=-8
Strength=21
Autosat=true
SatProtectionThreshold=30
SaturatedOpacity=80

[PCVignette]
Enabled=true
Strength=1
Feather=40
Roundness=50
