presets/forest_moody.pp3
[White Balance]
Enabled=true
TemperatureBias=-150

[Exposure]
Black=10

[Vibrance]
Enabled=true
Pastels=-6
Saturated=-8

[ColorToning]
Enabled=true
Method=Splitco
Lumamode=true
Redlow=-6
Greenlow=2
Bluelow=6
Redmed=0
Greenmed=0
Bluemed=0
Redhigh=2
Greenhigh=2
Bluehigh=-2
Strength=35
Autosat=true
SatProtectionThreshold=30
SaturatedOpacity=80

[PCVignette]
Enabled=true
Strength=1
Feather=45
Roundness=50
