presets/golden_hour.pp3
[Exposure]
Black=3

[Vibrance]
Enabled=true
Pastels=4
Saturated=6

[ColorToning]
Enabled=true
Method=Splitco
Lumamode=true
Redlow=6
Greenlow=2
Bluelow=-4
Redmed=0
Greenmed=0
Bluemed=0
Redhigh=14
Greenhigh=6
Bluehigh=-12
Strength=20
Autosat=true
SatProtectionThreshold=35
SaturatedOpacity=75

[PCVignette]
Enabled=true
Strength=1
Feather=65
Roundness=50
