presets/industrial_grit.pp3
[Exposure]
Black=8

[Luminance Curve]
Enabled=true
Contrast=20

[Vibrance]
Enabled=true
Saturated=-24
Pastels=-16

[ColorToning]
Enabled=true
Method=Splitco
Lumamode=true
Redlow=-2
Greenlow=0
Bluelow=2
Redmed=0
Greenmed=0
Bluemed=0
Redhigh=2
Greenhigh=0
Bluehigh=0
Strength=14
Autosat=true
SatProtectionThreshold=30
SaturatedOpacity=80

[PCVignette]
Enabled=true
Strength=1
Feather=40
Roundness=50
