presets/moody_warm.pp3
[Exposure]
Black=9

[Luminance Curve]
Enabled=true
Contrast=10

[Vibrance]
Enabled=true
Saturated=-10
Pastels=-6

[ColorToning]
Enabled=true
Method=Splitco
Lumamode=true
Redlow=8
Greenlow=2
Bluelow=-4
Redmed=0
Greenmed=0
Bluemed=0
Redhigh=-2
Greenhigh=0
Bluehigh=4
Strength=32
Autosat=true
SatProtectionThreshold=30
SaturatedOpacity=80
