presets/moonlit_blue.pp3
[White Balance]
Enabled=true
TemperatureBias=-300

[Exposure]
Black=8

[Vibrance]
Enabled=true
Saturated=-20
Pastels=-14

[ColorToning]
Enabled=true
Method=Splitco
Lumamode=true
Redlow=-8
Greenlow=0
Bluelow=12
Redmed=0
Greenmed=0
Bluemed=0
Redhigh=-4
Greenhigh=0
Bluehigh=8
Strength=35
Autosat=true
SatProtectionThreshold=30
SaturatedOpacity=80
