presets/nature_earth.pp3
[Exposure]
Black=5

[Vibrance]
Enabled=true
Pastels=-8
Saturated=-14
ProtectSkins=true
AvoidColorShift=true

[ColorToning]
Enabled=true
Method=Splitco
Lumamode=true
Redlow=3
Greenlow=2
Bluelow=-2
Redmed=0
Greenmed=0
Bluemed=0
Redhigh=5
Greenhigh=3
Bluehigh=-4
Strength=25
Autosat=true
SatProtectionThreshold=30
SaturatedOpacity=80
