presets/natural_skin.pp3
[Exposure]
Black=2

[Vibrance]
Enabled=true
Pastels=4
Saturated=3
ProtectSkins=true
AvoidColorShift=true
PastSatTog=true
