presets/urban_fade.pp3
[Exposure]
Black=14

[Luminance Curve]
Enabled=true
Contrast=-6

[Vibrance]
Enabled=true
Saturated=-22
Pastels=-12

[ColorToning]
Enabled=true
Method=Splitco
Lumamode=true
Redlow=4
Greenlow=0
Bluelow=4
Redmed=0
Greenmed=0
Bluemed=0
Redhigh=6
Greenhigh=2
Bluehigh=2
Strength=14
Autosat=true
SatProtectionThreshold=30
SaturatedOpacity=80
