presets/vintage_film_portrait.pp3
[Exposure]
Black=10

[Luminance Curve]
Enabled=true
Contrast=-4

[Vibrance]
Enabled=true
Saturated=-10
Pastels=2
ProtectSkins=true
AvoidColorShift=true

[ColorToning]
Enabled=true
Method=Splitco
Lumamode=true
Redlow=6
Greenlow=2
Bluelow=-2
Redmed=0
Greenmed=0
Bluemed=0
Redhigh=8
Greenhigh=4
Bluehigh=-6
Strength=18
Autosat=true
SatProtectionThreshold=35
SaturatedOpacity=75

[PCVignette]
Enabled=true
Strength=1
Feather=60
Roundness=50
