presets/warm_streetlamp.pp3
[White Balance]
Enabled=true
TemperatureBias=350

[Exposure]
Black=10

[Luminance Curve]
Enabled=true
Contrast=6

[Vibrance]
Enabled=true
Saturated=2
Pastels=-4

[ColorToning]
Enabled=true
Method=Splitco
Lumamode=true
Redlow=6
Greenlow=0
Bluelow=4
Redmed=0
Greenmed=0
Bluemed=0
Redhigh=16
Greenhigh=8
Bluehigh=-12
Strength=42
Autosat=true
SatProtectionThreshold=30
SaturatedOpacity=80

[PCVignette]
Enabled=true
Strength=1
Feather=55
Roundness=50
