profiles/lowlight.pp3
[Version]
AppVersion=5.12
Version=352

[General]
ColorLabel=0
InTrash=false

[Exposure]
Auto=false
Clip=0.02
Compensation=0.25
Brightness=0
Contrast=0
Saturation=0
Black=0
HighlightCompr=12
HighlightComprThreshold=20
ShadowCompr=35
HistogramMatching=true
CurveFromHistogramMatching=true
ClampOOG=true
CurveMode=FilmLike
CurveMode2=Standard
Curve=4;0;0;0.050000000000000003;0.050535436601654354;0.12;0.17710772275563419;0.21799999999999997;0.40976570882731783;0.35519999999999996;0.68344522626988158;0.54727999999999999;0.85859927285699544;0.81619199999999992;0.95986569014340506;1;1;
Curve2=0;

[HLRecovery]
Enabled=true
Method=Coloropp
Hlbl=0
Hlth=1

[Local Contrast]
Enabled=true
Radius=80
Amount=0.08
Darkness=1
Lightness=1

[Sharpening]
Enabled=true
Contrast=12
Method=usm
Radius=0.45
BlurRadius=0.20000000000000001
Amount=70
Threshold=25;90;2000;1200;
OnlyEdges=false
EdgedetectionRadius=1.8999999999999999
EdgeTolerance=1800
HalocontrolEnabled=true
HalocontrolAmount=70
DeconvRadius=0.75
DeconvAmount=80
DeconvDamping=0
DeconvIterations=20

[Vibrance]
Enabled=true
Pastels=5
Saturated=2
PSThreshold=0;75;
ProtectSkins=true
AvoidColorShift=true
PastSatTog=true
SkinTonesCurve=0;

[White Balance]
Enabled=true
Setting=autitcgreen
Temperature=3850
Green=1.0529999999999999
Equal=1
TemperatureBias=0
StandardObserver=TWO_DEGREES
Itcwb_green=0
Itcwb_rangegreen=1
Itcwb_nopurple=false
Itcwb_alg=false
Itcwb_prim=beta
Itcwb_sampling=false
CompatibilityVersion=2

[Defringing]
Enabled=true
Radius=2
Threshold=13
HueCurve=1;0.16666666699999999;0;0.34999999999999998;0.34999999999999998;0.34699999999999998;0;0.34999999999999998;0.34999999999999998;0.51366742600000004;0;0.34999999999999998;0.34999999999999998;0.66894457100000004;0;0.34999999999999998;0.34999999999999998;0.82877752459999998;0.97835991;0.34999999999999998;0.34999999999999998;0.99088838270000001;0;0.34999999999999998;0.34999999999999998;

[Dehaze]
Enabled=true
Strength=6
ShowDepthMap=false
Depth=25
Saturation=20

[Directional Pyramid Denoising]
Enabled=true
Enhance=false
Median=false
Luma=25
Ldetail=20
Chroma=30
Method=Lab
LMethod=SLI
CMethod=MAN
C2Method=AUTO
SMethod=shal
MedMethod=soft
RGBMethod=soft
MethodMed=Lonly
Redchro=6
Bluechro=-2
AutoGain=true
Gamma=1.7
Passes=1
LCurve=1;0.050000000000000003;0.14999999999999999;0.34999999999999998;0.34999999999999998;0.55000000000000004;0.040000000000000001;0.34999999999999998;0.34999999999999998;
CCCurve=1;0.050000000000000003;0.5;0.34999999999999998;0.34999999999999998;0.34999999999999998;0.050000000000000003;0.34999999999999998;0.34999999999999998;

[Shadows & Highlights]
Enabled=false
Highlights=0
HighlightTonalWidth=70
Shadows=0
ShadowTonalWidth=30
Radius=40
Lab=false

[Crop]
Enabled=false

[Coarse Transformation]
Rotate=0
HorizontalFlip=false
VerticalFlip=false

[Common Properties for Transformations]
Method=log
Scale=1
AutoFill=true

[Rotation]
Degree=0

[Distortion]
Amount=0
FocalLength=12
Defish=false

[LensProfile]
LcMode=lfauto
LCPFile=
UseDistortion=true
UseVignette=true
UseCA=true
LFCameraMake=
LFCameraModel=
LFLens=

[Perspective]
Method=simple
Horizontal=0
Vertical=0
CameraCropFactor=0
CameraFocalLength=70
CameraPitch=0
CameraRoll=0
CameraShiftHorizontal=0
CameraShiftVertical=0
CameraYaw=0
ProjectionShiftHorizontal=0
ProjectionPitch=0
ProjectionRotate=0
ProjectionShiftVertical=0
ProjectionYaw=0
ControlLineValues=
ControlLineTypes=

[Vignetting Correction]
Amount=0
Radius=50
Strength=1
CenterX=0
CenterY=0

[Resize]
Enabled=false

[PostDemosaicSharpening]
Enabled=true
Contrast=6
AutoContrast=true
AutoRadius=true
DeconvRadius=0.60000000000000005
DeconvRadiusOffset=0
DeconvIterCheck=true
DeconvIterations=15

[PostResizeSharpening]
Enabled=false

[Color Management]
InputProfile=(cameraICC)
ToneCurve=false
ApplyLookTable=true
ApplyBaselineExposureOffset=true
ApplyHueSatMap=true
DCPIlluminant=0
WorkingProfile=ProPhoto
WorkingTRC=none
Will=D50
Wprim=def
Wcat=brad
WorkingTRCGamma=2.3999999999999999
WorkingTRCSlope=12.92
Gamut=true
OutputProfile=RTv4_sRGB
aIntent=Relative
OutputProfileIntent=Relative
OutputBPC=true

[RAW]
DarkFrame=
DarkFrameAuto=false
FlatFieldFile=
FlatFieldAutoSelect=false
FlatFieldFromMetaData=false
FlatFieldBlurRadius=32
FlatFieldBlurType=Area Flatfield
FlatFieldAutoClipControl=false
FlatFieldClipControl=0
CA=true
CAAvoidColourshift=true
CAAutoIterations=2
CARed=0
CABlue=0
HotPixelFilter=false
DeadPixelFilter=false
HotDeadPixelThresh=100
PreExposure=1

[RAW Bayer]
Method=amaze
Border=4
ImageNum=1
CcSteps=0
PreBlack0=0
PreBlack1=0
PreBlack2=0
PreBlack3=0
PreTwoGreen=true
Dehablack=false
LineDenoise=0
LineDenoiseDirection=3
GreenEqThreshold=0
DCBIterations=2
DCBEnhance=true
LMMSEIterations=2
DualDemosaicAutoContrast=true
DualDemosaicContrast=20
PDAFLinesFilter=false

[MetaData]
Mode=1
ExifKeys=Exif.Image.Artist;Exif.Image.Copyright;Exif.Image.ImageDescription;Exif.Image.Make;Exif.Image.Model;Exif.Image.XResolution;Exif.Image.YResolution;Exif.Photo.DateTimeOriginal;Exif.Photo.ExposureBiasValue;Exif.Photo.ExposureTime;Exif.Photo.FNumber;Exif.Photo.Flash;Exif.Photo.FocalLength;Exif.Photo.ISOSpeedRatings;Exif.Photo.LensModel;Exif.Photo.UserComment;

[RAW Preprocess WB]
Mode=1